svgs/myproximus.svg

<svg xmlns="http://www.w3.org/2000/svg" viewBox="0 0 192 192"><path d="M22.806 22.806A22.981 22.981 0 0 1 37.929 16.5c17.872 0 32.872 24.924 37.32 58.749 6.88.911 13.811 1.372 20.751 1.378 6.94-.006 13.871-.467 20.751-1.378C121.199 41.424 136.2 16.5 154.071 16.5a22.981 22.981 0 0 1 15.123 6.306 22.98 22.98 0 0 1 6.306 15.122c0 17.873-24.924 32.875-58.749 37.321a156.96 156.96 0 0 0 0 41.502c33.825 4.448 58.749 19.448 58.749 37.32a21.542 21.542 0 0 1-6.306 15.123 21.542 21.542 0 0 1-15.123 6.306c-17.871 0-32.872-24.924-37.32-58.749a156.96 156.96 0 0 0-41.502 0c-4.448 33.825-19.448 58.749-37.32 58.749a22.981 22.981 0 0 1-15.123-6.306 22.981 22.981 0 0 1-6.306-15.123c0-17.872 24.924-32.872 58.749-37.32A159.122 159.122 0 0 0 76.627 96a159.122 159.122 0 0 0-1.378-20.751C41.424 70.801 16.5 55.801 16.5 37.928a22.98 22.98 0 0 1 6.306-15.122Z" fill="none" stroke="#000" stroke-width="12" stroke-linecap="round" stroke-linejoin="round"/></svg>

<svg
    xmlns="http://www.w3.org/2000/svg"
    viewBox="0 0 192 192"
    id="vector">
    <path
        id="path"
        d="M 22.806 22.806 C 26.899 18.918 32.286 16.672 37.929 16.5 C 55.801 16.5 70.801 41.424 75.249 75.249 C 82.129 76.16 89.06 76.621 96 76.627 C 102.94 76.621 109.871 76.16 116.751 75.249 C 121.199 41.424 136.2 16.5 154.071 16.5 C 159.714 16.672 165.101 18.918 169.194 22.806 C 173.082 26.899 175.328 32.286 175.5 37.928 C 175.5 55.801 150.576 70.803 116.751 75.249 C 114.914 89.022 114.914 102.978 116.751 116.751 C 150.576 121.199 175.5 136.199 175.5 154.071 C 175.473 159.744 173.205 165.182 169.194 169.194 C 165.182 173.205 159.744 175.473 154.071 175.5 C 136.2 175.5 121.199 150.576 116.751 116.751 C 102.978 114.914 89.022 114.914 75.249 116.751 C 70.801 150.576 55.801 175.5 37.929 175.5 C 32.286 175.328 26.899 173.082 22.806 169.194 C 18.918 165.101 16.672 159.714 16.5 154.071 C 16.5 136.199 41.424 121.199 75.249 116.751 C 76.16 109.871 76.621 102.94 76.627 96 C 76.621 89.06 76.16 82.129 75.249 75.249 C 41.424 70.801 16.5 55.801 16.5 37.928 C 16.672 32.286 18.918 26.899 22.806 22.806 Z"
        fill="none"
        stroke="#000000"
        stroke-width="12"
        stroke-linecap="round"
        stroke-linejoin="round"/>
</svg>
